!!!OTL: 873. Beim hauben der Braut.
!!!ARE: Europa, Mitteleuropa, Deutschland, Schlesien, Breslau
!!!SCT: E0873A
!!!TXL: @@DE
!!!YEM: Copyright 1995, estate of Helmut Schaffrath.
**kern	**text
*ICvox	*
*M4/4	*
*met(c)	*
*k[b-]	*
*F:	*
=1	=1
!LO:TX:a:t=Aus Schleſten, Hoffm. Nr. 105.	!
{4.cc	Braut,
8b-	wo
4a	iſt
4f	dein
=2	=2
8aL	Kränʒ-
8gJ	.
8fL	-chen
8eJ	.
2f}	hin,
=3	=3
{8eL	das
8fJ	.
8gL	dir
8aJ	.
4b-	ſtand
4b-	ſo
=4	=4
4a	nied-
4cc	-lich
2g}	grün?
=5	=5
{4.cc	Ach,
8b-	das
8b-L	Kränʒ-
8aJ	.
8gL	-chen
8fJ	.
=6	=6
4b-	geht
4dd	dir
2cc}	nah,
=7	=7
{4.b-	es
8cc	iſt
4a	lei-
4f	-der
=8	=8
8aL	nicht
8gJ	.
8fL	mehr
8eJ	.
2f}	da.
==	==
!!!AGN: Hochzeits -, Ehestands - Lied
!!!ONB: ESAC (Essen Associative Code) Database: ERK2
!!!AMT: simple quadruple
!!!AIN: vox
!!!EED: Helmut Schaffrath
!!!EEV: 1.0
!!!GTL: Hochzeits- und Ehrstandslieder, nebst Nonnenklagen
!!!URL-scan: https://rosdok.uni-rostock.de/mcrviewer/recordIdentifier/rosdok_ppn745177662/iview2/phys_0670.iview2?x=193.8995864193107&y=1974.135217585601&scale=0.7029437510502773&rotation=0&layout=singlePageLayout
!!!ENC: Anna Maria Matuszewska
!!!EEV: 2024/12/18
*-	*-
